X:1
T:Let Him In
T:Edwin Othello Excell
T:Let Him In
T:Public Domain
T:Public Domain
T:Public Domain
C:Edwin Othello Excell
Z:Public Domain
%%score ( 1 2 ) ( 3 4 )
L:1/8
M:4/4
K:Db
V:1 treble 
V:2 treble 
V:3 bass 
V:4 bass 
V:1
 [DF][EG] | [FA]2 [Af]2 [Ad]2 [GB]2 | [FA]6 z2 | GGCD E2 B2 | FFDE F2 | [DF][EG] | %6
w: 1.~There’s a|strang- er at the|door,|Let the Sav- ior in, O|the Sav- ior in; He|been there|
w: 2.~O- pen|now to Him your|heart,|Let the Sav- ior in, O|the Sav- ior in; If|wait He|
w: 3.~Hear you|now His lov- ing|voice?|Let the Sav- ior in, O|the Sav- ior in; Now,|now make|
w: 4.~Now ad-|mit the heav- ’nly|guest,|Let the Sav- ior in, O|the Sav- ior in; He|make for|
 [FA]2 [Af]2 [Ad]2 [GB]2 | [FA]6 | GGCD E2 (Bc) | F=EGG F2 | [FA][FA] | [GB]2 [Bd]2 [Ac]2 [GB]2 | %12
w: oft be- fore, Let|the|Sav- ior in, O let the *|ior in. Let Him in,|He is|gone; Let Him in,|
w: will de- part, Let|the|Sav- ior in, O let the *|ior in. Let Him in,|is your|friend; He your soul|
w: Him your choice, Let|the|Sav- ior in, O let the *|ior in. He is stand-|at your|door; Joy to you|
w: you a feast, Let|the|Sav- ior in, O let the *|ior in. He will speak|sins for-|giv’n, And when earth|
 [FA]6 [DF][EG] | [FA]2 [Fd]2 [Ac]2 [=Gd]2 | [Ae]6 [Af][Ae] | [Fd]2 [FA]2 [GB]2 [GB]2 | [FA]6 z2 | %17
w: the Ho- ly|One, Je- sus Christ|the Fa- ther’s|Son, Let the Sav-|ior|
w: will sure de-|fend, He will keep|you to the|end, Let the Sav-|ior|
w: He will re-|store, And His Name|you will a-|dore, Let the Sav-|ior|
w: ties all are|riv’n, He will take|you home to|Heav’n, Let the Sav-|ior|
 GGCD E2 (Bc) | F=EGG F2 |] %19
w: in, O let the Sa- vior *||
w: in, O let the Savior in. *||
w: in, O let the Sav- ior *||
w: in, O let the Sav- ior *||
V:2
 x2 | x8 | x8 | A6 x2 | A6 | x2 | x8 | x6 | A6 x2 | A6 | x2 | x8 | x8 | x8 | x8 | x8 | x8 | A6 x2 | %18
w: |||let|has||||Sav-|ere||||||||in.|
w: |||let|you||||Sav-|He|||||||||
w: |||let|oh,||||Sav-|ing||||||||in.|
w: |||let|will||||Sav-|your||||||||in.|
 d6 |] %19
w: |
w: |
w: |
w: |
V:3
 [D,A,][D,A,] | [D,D]2 [D,D]2 [F,D]2 [G,D]2 | (D2 A,4) z2 | [A,,A,][A,,A,][A,,E,][A,,F,] [A,,G,]4 | %4
 [D,A,][D,A,][D,F,][D,G,] [D,A,]2 | [D,A,][D,A,] | [D,D]2 [D,D]2 [F,D]2 [G,D]2 | (D2 A,4) | %8
 [A,,A,][A,,A,][A,,E,][A,,F,] [A,,G,]4 | [D,A,][D,=G,][D,B,][D,B,] [D,A,]2 | [D,D][D,D] | %11
 [G,D]2 [G,D]2 [G,D]2 [G,D]2 | [D,D]6 [D,A,][D,A,] | [D,D]2 [D,A,]2 [E,A,]2 [D,A,]2 | %14
 [A,C]6 [A,C][A,C] | [D,D]2 [D,D]2 [G,D]2 [G,D]2 | (D2 A,4) z2 | %17
 [A,,A,][A,,A,][A,,E,][A,,F,] [A,,F,]4 | [D,A,][D,=G,][D,B,][D,B,] [D,A,]2 |] %19
V:4
 x2 | x8 | D,6 x2 | x8 | x6 | x2 | x8 | D,6 | x8 | x6 | x2 | x8 | x8 | x8 | x8 | x8 | D,6 x2 | x8 | %18
 x6 |] %19

